!!!COM: Bach, Johann Sebastian
!!!OPR: Das wohltemperirte Clavier, Band I
!!!XEN: The Well-Tempered Clavier, Volume I
!!!OTL: Prelude in C Major
!!!OMV: Prelude I
!!!SCT: BWV 846
!!!SCA: Thematisch-systematisches Verzeichnis der musikalischen Werke Johann Sebastian Bach: Bach-Werke-Verzeichnis (Schmieder)
!!!YOR: Bach Gesellschaft Edition xiv
!!!ENC: Walter Hewlett
!!!CDT: 1685/3//-1750/7/28/
!!!OCY: Deutschland
!!!YEC: Copyright (c) 1994, 2000 Center for Computer Assisted Research in the Humanities
!!!YEM: Rights to all derivative editions reserved
!!!YEN: United States of America
**kern
*k[]
*C:
*M4/4
*MM112
=1-
*^
*^	*
8r	16r	2c\
.	[8.e\	.
16g/LL	.	.
16cc/JJ	.	.
16ee/LL	4e\]	.
16g/	.	.
16cc/	.	.
16ee/JJ	.	.
8r	16r	2c\
.	[8.e\	.
16g/LL	.	.
16cc/JJ	.	.
16ee/LL	4e\]	.
16g/	.	.
16cc/	.	.
16ee/JJ	.	.
=2	=2	=2
8r	16r	2c\
.	[8.d\	.
16a/LL	.	.
16dd/JJ	.	.
16ff/LL	4d\]	.
16a/	.	.
16dd/	.	.
16ff/JJ	.	.
8r	16r	2c\
.	[8.d\	.
16a/LL	.	.
16dd/JJ	.	.
16ff/LL	4d\]	.
16a/	.	.
16dd/	.	.
16ff/JJ	.	.
=3	=3	=3
8r	16r	2B\
.	[8.d\	.
16g/LL	.	.
16dd/JJ	.	.
16ff/LL	4d\]	.
16g/	.	.
16dd/	.	.
16ff/JJ	.	.
8r	16r	2B\
.	[8.d\	.
16g/LL	.	.
16dd/JJ	.	.
16ff/LL	4d\]	.
16g/	.	.
16dd/	.	.
16ff/JJ	.	.
=4	=4	=4
8r	16r	2c\
.	[8.e\	.
16g/LL	.	.
16cc/JJ	.	.
16ee/LL	4e\]	.
16g/	.	.
16cc/	.	.
16ee/JJ	.	.
8r	16r	2c\
.	[8.e\	.
16g/LL	.	.
16cc/JJ	.	.
16ee/LL	4e\]	.
16g/	.	.
16cc/	.	.
16ee/JJ	.	.
=5	=5	=5
8r	16r	2c\
.	[8.e\	.
16a/LL	.	.
16ee/JJ	.	.
16aa/LL	4e\]	.
16a/	.	.
16ee/	.	.
16aa/JJ	.	.
8r	16r	2c\
.	[8.e\	.
16a/LL	.	.
16ee/JJ	.	.
16aa/LL	4e\]	.
16a/	.	.
16ee/	.	.
16aa/JJ	.	.
=6	=6	=6
8r	16r	2c\
.	[8.d\	.
16f#/LL	.	.
16a/JJ	.	.
16dd/LL	4d\]	.
16f#/	.	.
16a/	.	.
16dd/JJ	.	.
8r	16r	2c\
.	[8.d\	.
16f#/LL	.	.
16a/JJ	.	.
16dd/LL	4d\]	.
16f#/	.	.
16a/	.	.
16dd/JJ	.	.
=7	=7	=7
8r	16r	2B\
.	[8.d\	.
16g/LL	.	.
16dd/JJ	.	.
16gg/LL	4d\]	.
16g/	.	.
16dd/	.	.
16gg/JJ	.	.
8r	16r	2B\
.	[8.d\	.
16g/LL	.	.
16dd/JJ	.	.
16gg/LL	4d\]	.
16g/	.	.
16dd/	.	.
16gg/JJ	.	.
=8	=8	=8
8r	16r	2B\
.	[8.c\	.
16e/LL	.	.
16g/JJ	.	.
16cc/LL	4c\]	.
16e/	.	.
16g/	.	.
16cc/JJ	.	.
8r	16r	2B\
.	[8.c\	.
16e/LL	.	.
16g/JJ	.	.
16cc/LL	4c\]	.
16e/	.	.
16g/	.	.
16cc/JJ	.	.
=9	=9	=9
8r	16r	2A\
.	[8.c\	.
16e/LL	.	.
16g/JJ	.	.
16cc/LL	4c\]	.
16e/	.	.
16g/	.	.
16cc/JJ	.	.
8r	16r	2A\
.	[8.c\	.
16e/LL	.	.
16g/JJ	.	.
16cc/LL	4c\]	.
16e/	.	.
16g/	.	.
16cc/JJ	.	.
=10	=10	=10
8r	16r	2D\
.	[8.A/	.
16d/LL	.	.
16f#/JJ	.	.
16cc/LL	4A/]	.
16d/	.	.
16f#/	.	.
16cc/JJ	.	.
8r	16r	2D\
.	[8.A/	.
16d/LL	.	.
16f#/JJ	.	.
16cc/LL	4A/]	.
16d/	.	.
16f#/	.	.
16cc/JJ	.	.
=11	=11	=11
8r	16r	2G\
.	[8.B/	.
16d/LL	.	.
16g/JJ	.	.
16b/LL	4B/]	.
16d/	.	.
16g/	.	.
16b/JJ	.	.
8r	16r	2G\
.	[8.B/	.
16d/LL	.	.
16g/JJ	.	.
16b/LL	4B/]	.
16d/	.	.
16g/	.	.
16b/JJ	.	.
=12	=12	=12
8r	16r	2G\
.	[8.B-/	.
16e/LL	.	.
16g/JJ	.	.
16cc#/LL	4B-/]	.
16e/	.	.
16g/	.	.
16cc#/JJ	.	.
8r	16r	2G\
.	[8.B-/	.
16e/LL	.	.
16g/JJ	.	.
16cc#/LL	4B-/]	.
16e/	.	.
16g/	.	.
16cc#/JJ	.	.
=13	=13	=13
8r	16r	2F\
.	[8.A/	.
16d/LL	.	.
16a/JJ	.	.
16dd/LL	4A/]	.
16d/	.	.
16a/	.	.
16dd/JJ	.	.
8r	16r	2F\
.	[8.A/	.
16d/LL	.	.
16a/JJ	.	.
16dd/LL	4A/]	.
16d/	.	.
16a/	.	.
16dd/JJ	.	.
=14	=14	=14
8r	16r	2F\
.	[8.A-/	.
16d/LL	.	.
16f/JJ	.	.
16b/LL	4A-/]	.
16d/	.	.
16f/	.	.
16b/JJ	.	.
8r	16r	2F\
.	[8.A-/	.
16d/LL	.	.
16f/JJ	.	.
16b/LL	4A-/]	.
16d/	.	.
16f/	.	.
16b/JJ	.	.
=15	=15	=15
8r	16r	2E\
.	[8.G/	.
16c/LL	.	.
16g/JJ	.	.
16cc/LL	4G/]	.
16c/	.	.
16g/	.	.
16cc/JJ	.	.
8r	16r	2E\
.	[8.G/	.
16c/LL	.	.
16g/JJ	.	.
16cc/LL	4G/]	.
16c/	.	.
16g/	.	.
16cc/JJ	.	.
=16	=16	=16
8r	16r	2E\
.	[8.F/	.
16A/LL	.	.
16c/JJ	.	.
16f/LL	4F/]	.
16A/	.	.
16c/	.	.
16f/JJ	.	.
8r	16r	2E\
.	[8.F/	.
16A/LL	.	.
16c/JJ	.	.
16f/LL	4F/]	.
16A/	.	.
16c/	.	.
16f/JJ	.	.
=17	=17	=17
8r	16r	2D\
.	[8.F/	.
16A/LL	.	.
16c/JJ	.	.
16f/LL	4F/]	.
16A/	.	.
16c/	.	.
16f/JJ	.	.
8r	16r	2D\
.	[8.F/	.
16A/LL	.	.
16c/JJ	.	.
16f/LL	4F/]	.
16A/	.	.
16c/	.	.
16f/JJ	.	.
=18	=18	=18
8r	16r	2GG\
.	[8.D/	.
16G/LL	.	.
16B/JJ	.	.
16f/LL	4D/]	.
16G/	.	.
16B/	.	.
16f/JJ	.	.
8r	16r	2GG\
.	[8.D/	.
16G/LL	.	.
16B/JJ	.	.
16f/LL	4D/]	.
16G/	.	.
16B/	.	.
16f/JJ	.	.
=19	=19	=19
8r	16r	2C\
.	[8.E/	.
16G/LL	.	.
16c/JJ	.	.
16e/LL	4E/]	.
16G/	.	.
16c/	.	.
16e/JJ	.	.
8r	16r	2C\
.	[8.E/	.
16G/LL	.	.
16c/JJ	.	.
16e/LL	4E/]	.
16G/	.	.
16c/	.	.
16e/JJ	.	.
=20	=20	=20
8r	16r	2C\
.	[8.G/	.
16B-/LL	.	.
16c/JJ	.	.
16e/LL	4G/]	.
16B-/	.	.
16c/	.	.
16e/JJ	.	.
8r	16r	2C\
.	[8.G/	.
16B-/LL	.	.
16c/JJ	.	.
16e/LL	4G/]	.
16B-/	.	.
16c/	.	.
16e/JJ	.	.
=21	=21	=21
8r	16r	2FF\
.	[8.F/	.
16A/LL	.	.
16c/JJ	.	.
16e/LL	4F/]	.
16A/	.	.
16c/	.	.
16e/JJ	.	.
8r	16r	2FF\
.	[8.F/	.
16A/LL	.	.
16c/JJ	.	.
16e/LL	4F/]	.
16A/	.	.
16c/	.	.
16e/JJ	.	.
=22	=22	=22
8r	16r	2FF#\
.	[8.C/	.
16A/LL	.	.
16c/JJ	.	.
16e-/LL	4C/]	.
16A/	.	.
16c/	.	.
16e-/JJ	.	.
8r	16r	2FF#\
.	[8.C/	.
16A/LL	.	.
16c/JJ	.	.
16e-/LL	4C/]	.
16A/	.	.
16c/	.	.
16e-/JJ	.	.
=23	=23	=23
8r	16r	2AA-\
.	[8.F/	.
16B/LL	.	.
16c/JJ	.	.
16d/LL	4F/]	.
16B/	.	.
16c/	.	.
16d/JJ	.	.
8r	16r	2AA-\
.	[8.F/	.
16B/LL	.	.
16c/JJ	.	.
16d/LL	4F/]	.
16B/	.	.
16c/	.	.
16d/JJ	.	.
=24	=24	=24
8r	16r	2GG\
.	[8.F/	.
16G/LL	.	.
16B/JJ	.	.
16d/LL	4F/]	.
16G/	.	.
16B/	.	.
16d/JJ	.	.
8r	16r	2GG\
.	[8.F/	.
16G/LL	.	.
16B/JJ	.	.
16d/LL	4F/]	.
16G/	.	.
16B/	.	.
16d/JJ	.	.
=25	=25	=25
8r	16r	2GG\
.	[8.E/	.
16G/LL	.	.
16c/JJ	.	.
16e/LL	4E/]	.
16G/	.	.
16c/	.	.
16e/JJ	.	.
8r	16r	2GG\
.	[8.E/	.
16G/LL	.	.
16c/JJ	.	.
16e/LL	4E/]	.
16G/	.	.
16c/	.	.
16e/JJ	.	.
=26	=26	=26
8r	16r	2GG\
.	[8.D/	.
16G/LL	.	.
16c/JJ	.	.
16f/LL	4D/]	.
16G/	.	.
16c/	.	.
16f/JJ	.	.
8r	16r	2GG\
.	[8.D/	.
16G/LL	.	.
16c/JJ	.	.
16f/LL	4D/]	.
16G/	.	.
16c/	.	.
16f/JJ	.	.
=27	=27	=27
8r	16r	2GG\
.	[8.D/	.
16G/LL	.	.
16B/JJ	.	.
16f/LL	4D/]	.
16G/	.	.
16B/	.	.
16f/JJ	.	.
8r	16r	2GG\
.	[8.D/	.
16G/LL	.	.
16B/JJ	.	.
16f/LL	4D/]	.
16G/	.	.
16B/	.	.
16f/JJ	.	.
=28	=28	=28
8r	16r	2GG\
.	[8.E-/	.
16A/LL	.	.
16c/JJ	.	.
16f#/LL	4E-/]	.
16A/	.	.
16c/	.	.
16f#/JJ	.	.
8r	16r	2GG\
.	[8.E-/	.
16A/LL	.	.
16c/JJ	.	.
16f#/LL	4E-/]	.
16A/	.	.
16c/	.	.
16f#/JJ	.	.
=29	=29	=29
8r	16r	2GG\
.	[8.E/	.
16G/LL	.	.
16c/JJ	.	.
16g/LL	4E/]	.
16G/	.	.
16c/	.	.
16g/JJ	.	.
8r	16r	2GG\
.	[8.E/	.
16G/LL	.	.
16c/JJ	.	.
16g/LL	4E/]	.
16G/	.	.
16c/	.	.
16g/JJ	.	.
=30	=30	=30
8r	16r	2GG\
.	[8.D/	.
16G/LL	.	.
16c/JJ	.	.
16f/LL	4D/]	.
16G/	.	.
16c/	.	.
16f/JJ	.	.
8r	16r	2GG\
.	[8.D/	.
16G/LL	.	.
16c/JJ	.	.
16f/LL	4D/]	.
16G/	.	.
16c/	.	.
16f/JJ	.	.
=31	=31	=31
8r	16r	2GG\
.	[8.D/	.
16G/LL	.	.
16B/JJ	.	.
16f/LL	4D/]	.
16G/	.	.
16B/	.	.
16f/JJ	.	.
8r	16r	2GG\
.	[8.D/	.
16G/LL	.	.
16B/JJ	.	.
16f/LL	4D/]	.
16G/	.	.
16B/	.	.
16f/JJ	.	.
=32	=32	=32
8r	16r	2CC\
.	[8.C/	.
16G/LL	.	.
16B-/JJ	.	.
16e/LL	4C/]	.
16G/	.	.
16B-/	.	.
16e/JJ	.	.
8r	16r	2CC\
.	[8.C/	.
16G/LL	.	.
16B-/JJ	.	.
16e/LL	4C/]	.
16G/	.	.
16B-/	.	.
16e/JJ	.	.
=33	=33	=33
8r	16r	1CC\
.	[8.C/	.
16F/LL	.	.
16A/JJ	.	.
16c/LL	2.C/]	.
16f/	.	.
16c/	.	.
16A/JJ	.	.
16c/LL	.	.
16A/	.	.
16F/	.	.
16A/JJ	.	.
16F/LL	.	.
16D/	.	.
16F/	.	.
16D/JJ	.	.
=34	=34	=34
8r	16r	1CC\
.	[8.BB/	.
16g/LL	.	.
16b/JJ	.	.
16dd/LL	2.BB/]	.
16ff/	.	.
16dd/	.	.
16b/JJ	.	.
16dd/LL	.	.
16b/	.	.
16g/	.	.
16b/JJ	.	.
16d/LL	.	.
16f/	.	.
16e/	.	.
16d/JJ	.	.
=35	=35	=35
1cc;/ 1g/ 1e/	1C/	1CC;\
==|!	==|!	==|!
*-	*-	*-
!!!END: 1994/01/07/
!!!KEY: 634261930
!!!EMD: Converted from MuseData to Humdrum Dec 19, 2000, by Andreas Kornstaedt using muse2kern.
